X: 1
T: Seljan\vcica  [A]
O: Yugoslav
Z: 2009 John Chambers <jc:trillian.mit.edu>
S: handwritten MS of unknown origin
M: 2/4
L: 1/8
K: A
|: [ec]>[dB] [cA][dB] | [ec][fd] [e2c2] | [ec][af] [ge][fd] | [e2c2] [c2A2] :| \
   [ec]>[dB] [dB][dB] | [ec]>[cA] [cA][cA] | [ec]>[dB] [dB][dB] | [ec]>[cA] [cA][cA] \
|: [AE] [c2A2] [BG] | [AE] [c2A2] [BG] | [AE] [c2A2] [BG] | [A2A2] [A2A2] :|
